actions/symbolic/browser-download-symbolic.svg

<?xml version="1.0" encoding="UTF-8" standalone="no"?>
<svg
   xmlns:dc="http://purl.org/dc/elements/1.1/"
   xmlns:cc="http://creativecommons.org/ns#"
   xmlns:rdf="http://www.w3.org/1999/02/22-rdf-syntax-ns#"
   xmlns:svg="http://www.w3.org/2000/svg"
   xmlns="http://www.w3.org/2000/svg"
   xmlns:sodipodi="http://sodipodi.sourceforge.net/DTD/sodipodi-0.dtd"
   xmlns:inkscape="http://www.inkscape.org/namespaces/inkscape"
   height="16"
   width="16"
   version="1.1"
   id="svg8"
   sodipodi:docname="browser-download-symbolic.svg"
   inkscape:version="0.92.2pre0 (973e216, 2017-07-25)">
  <metadata
     id="metadata14">
    <rdf:RDF>
      <cc:Work
         rdf:about="">
        <dc:format>image/svg+xml</dc:format>
        <dc:type
           rdf:resource="http://purl.org/dc/dcmitype/StillImage" />
      </cc:Work>
    </rdf:RDF>
  </metadata>
  <defs
     id="defs12" />
  <sodipodi:namedview
     pagecolor="#ffffff"
     bordercolor="#808080"
     borderopacity="1"
     objecttolerance="10"
     gridtolerance="10"
     guidetolerance="10"
     inkscape:pageopacity="0"
     inkscape:pageshadow="2"
     inkscape:window-width="1920"
     inkscape:window-height="1001"
     id="namedview10"
     showgrid="false"
     inkscape:zoom="14.75"
     inkscape:cx="8"
     inkscape:cy="8"
     inkscape:window-x="0"
     inkscape:window-y="0"
     inkscape:window-maximized="1"
     inkscape:current-layer="svg8" />
  <g
     color="#000"
     transform="translate(-272 -112)"
     id="g6"
     style="fill:#808080;fill-opacity:1">
    <path
       d="M278 112v5h-2.156s2.078 5.312 4.156 8.156c2.078-2.844 4.156-8.156 4.156-8.156H282v-5zm1 1h2v5h1.588c-.47.998-1.188 3.213-2.588 5.32-1.4-2.107-2.18-4.322-2.65-5.32H279z"
       fill="#808080"
       overflow="visible"
       style="marker:none;fill:#808080;fill-opacity:1"
       id="path2" />
    <path
       d="M274 126v1h12v-1z"
       fill="#808080"
       overflow="visible"
       style="marker:none;fill:#808080;fill-opacity:1"
       id="path4" />
  </g>
</svg>

<svg xmlns="http://www.w3.org/2000/svg" width="16" height="16" version="1.1">
 <g style="fill:#808080" transform="translate(-272,-112)">
  <path style="fill:#808080" d="M 278,112 V 117 H 275.84 C 275.84,117 277.92,122.31 280,125.16 282.08,122.31 284.16,117 284.16,117 H 282 V 112 Z M 279,113 H 281 V 118 H 282.59 C 282.12,119 281.4,121.21 280,123.32 278.6,121.21 277.82,119 277.35,118 H 279 Z"/>
  <path style="fill:#808080" d="M 274,126 V 127 H 286 V 126 Z"/>
 </g>
</svg>
